X: 35031
T: Rollicking Boys Of Tandragee, The
R: jig
M: 6/8
K: Edorian
A|:~B3 ~E3|~B3 d2B|~A3 ~D3|DFA dcA|
~B3 ~E3|~B3 e2f|edB AFA|1 BEE Edc:|2 BEE E2A||
|:Bee ede|fed ~e2 c|ded dcB|ABc d2A|
Bee ~e3|fed ~e2 f|edB AFA|1 BEE E2A:|2 BEE E2||

